src/com/lilithsthrone/res/combat/spell/upgrade/elemental_earth_rolling_stone.svg

<?xml version="1.0" encoding="UTF-8" standalone="no"?>
<!-- Created with Inkscape (http://www.inkscape.org/) -->

<svg
   xmlns:dc="http://purl.org/dc/elements/1.1/"
   xmlns:cc="http://creativecommons.org/ns#"
   xmlns:rdf="http://www.w3.org/1999/02/22-rdf-syntax-ns#"
   xmlns:svg="http://www.w3.org/2000/svg"
   xmlns="http://www.w3.org/2000/svg"
   xmlns:xlink="http://www.w3.org/1999/xlink"
   xmlns:sodipodi="http://sodipodi.sourceforge.net/DTD/sodipodi-0.dtd"
   xmlns:inkscape="http://www.inkscape.org/namespaces/inkscape"
   viewBox="0 0 256 256"
   id="svg2"
   version="1.1"
   inkscape:version="0.91 r13725"
   sodipodi:docname="elemental_earth_rolling_stone.svg">
  <defs
     id="defs4">
    <linearGradient
       inkscape:collect="always"
       id="elementalEarth1">
      <stop
         style="stop-color:#c78c38;stop-opacity:1"
         offset="0"
         id="stop4295" />
      <stop
         style="stop-color:#e3a347;stop-opacity:1"
         offset="1"
         id="stop4297" />
    </linearGradient>
    <linearGradient
       inkscape:collect="always"
       id="elementalEarth3">
      <stop
         style="stop-color:#6b6662;stop-opacity:1"
         offset="0"
         id="stop4215" />
      <stop
         style="stop-color:#9f9f9f;stop-opacity:1"
         offset="1"
         id="stop4217" />
    </linearGradient>
    <linearGradient
       inkscape:collect="always"
       xlink:href="#elementalEarth3"
       id="linearGradient4219"
       x1="165.22588"
       y1="229.36224"
       x2="120.89674"
       y2="72.648697"
       gradientUnits="userSpaceOnUse"
       gradientTransform="matrix(0.62502958,0,0,0.62172796,40.746289,43.760024)" />
    <linearGradient
       inkscape:collect="always"
       xlink:href="#elementalEarth1"
       id="linearGradient4313"
       x1="24.855623"
       y1="43.392982"
       x2="25.582361"
       y2="41.167343"
       gradientUnits="userSpaceOnUse" />
    <linearGradient
       inkscape:collect="always"
       xlink:href="#elementalEarth1"
       id="linearGradient4321"
       x1="24.855623"
       y1="43.392982"
       x2="25.582361"
       y2="41.167343"
       gradientUnits="userSpaceOnUse" />
  </defs>
  <sodipodi:namedview
     id="base"
     pagecolor="#ffffff"
     bordercolor="#666666"
     borderopacity="1.0"
     inkscape:pageopacity="0.0"
     inkscape:pageshadow="2"
     inkscape:zoom="1.4"
     inkscape:cx="139.57252"
     inkscape:cy="99.334317"
     inkscape:document-units="px"
     inkscape:current-layer="layer2"
     showgrid="false"
     units="px"
     inkscape:window-width="2560"
     inkscape:window-height="1388"
     inkscape:window-x="-8"
     inkscape:window-y="-8"
     inkscape:window-maximized="1" />
  <metadata
     id="metadata7">
    <rdf:RDF>
      <cc:Work
         rdf:about="">
        <dc:format>image/svg+xml</dc:format>
        <dc:type
           rdf:resource="http://purl.org/dc/dcmitype/StillImage" />
        <dc:title></dc:title>
      </cc:Work>
    </rdf:RDF>
  </metadata>
  <g
     inkscape:groupmode="layer"
     id="layer2"
     inkscape:label="Layer 2"
     style="display:inline">
    <g
       id="g4468"
       transform="matrix(0.36759859,0.64387926,-0.65101808,0.36356764,191.67987,10.408413)"
       style="stroke:#52473f;stroke-width:3;stroke-miterlimit:4;stroke-dasharray:none;stroke-opacity:1">
      <path
         sodipodi:nodetypes="cccccccccccc"
         inkscape:connector-curvature="0"
         id="path4179"
         d="M 134.28345,188.73821 92.538073,187.71471 59.91727,153.41522 51.311721,122.39931 66.170283,98.027108 76.889733,72.527674 123.96586,54.136418 168.62141,73.477776 187.82633,106.47057 187.43406,142.54662 162.596,176.234 Z"
         style="fill:url(#linearGradient4219);fill-opacity:1;fill-rule:evenodd;stroke:#52473f;stroke-width:3;stroke-linecap:butt;stroke-linejoin:miter;stroke-miterlimit:4;stroke-dasharray:none;stroke-opacity:1" />
      <path
         inkscape:connector-curvature="0"
         id="path4181"
         d="m 60.140592,153.62424 32.828317,-10.03257 30.595101,15.67588 10.2728,28.63461"
         style="fill:none;fill-rule:evenodd;stroke:#52473f;stroke-width:3;stroke-linecap:butt;stroke-linejoin:miter;stroke-miterlimit:4;stroke-dasharray:none;stroke-opacity:1" />
      <path
         inkscape:connector-curvature="0"
         id="path4183"
         d="m 123.56401,158.84953 16.97246,-22.15524 29.03185,-5.43431 17.4191,11.49564"
         style="fill:none;fill-rule:evenodd;stroke:#52473f;stroke-width:3;stroke-linecap:butt;stroke-linejoin:miter;stroke-miterlimit:4;stroke-dasharray:none;stroke-opacity:1" />
      <path
         inkscape:connector-curvature="0"
         id="path4185"
         d="m 169.56832,131.46898 -5.30737,-29.60399 -24.17112,-7.391081 27.60639,-21.076557"
         style="fill:none;fill-rule:evenodd;stroke:#52473f;stroke-width:3;stroke-linecap:butt;stroke-linejoin:miter;stroke-miterlimit:4;stroke-dasharray:none;stroke-opacity:1"
         sodipodi:nodetypes="cccc" />
      <path
         inkscape:connector-curvature="0"
         id="path4187"
         d="M 140.31315,94.264897 104.80497,91.547744 77.113055,72.527674"
         style="fill:none;fill-rule:evenodd;stroke:#52473f;stroke-width:3;stroke-linecap:butt;stroke-linejoin:miter;stroke-miterlimit:4;stroke-dasharray:none;stroke-opacity:1" />
      <path
         inkscape:connector-curvature="0"
         id="path4189"
         d="m 103.68835,91.338732 18.36855,23.759228 18.25625,21.38731"
         style="fill:none;fill-rule:evenodd;stroke:#52473f;stroke-width:3;stroke-linecap:butt;stroke-linejoin:miter;stroke-miterlimit:4;stroke-dasharray:none;stroke-opacity:1"
         sodipodi:nodetypes="ccc" />
      <path
         inkscape:connector-curvature="0"
         id="path4191"
         d="m 74.637613,119.69467 18.331296,23.68799"
         style="fill:none;fill-rule:evenodd;stroke:#52473f;stroke-width:3;stroke-linecap:butt;stroke-linejoin:miter;stroke-miterlimit:4;stroke-dasharray:none;stroke-opacity:1"
         sodipodi:nodetypes="cc" />
      <path
         inkscape:connector-curvature="0"
         id="path4193"
         d="m 51.710645,122.50634 69.676425,-7.73948"
         style="fill:none;fill-rule:evenodd;stroke:#52473f;stroke-width:3;stroke-linecap:butt;stroke-linejoin:miter;stroke-miterlimit:4;stroke-dasharray:none;stroke-opacity:1"
         sodipodi:nodetypes="cc" />
    </g>
    <path
       style="fill:#9d8b7f;fill-rule:evenodd;stroke:none;stroke-width:1px;stroke-linecap:butt;stroke-linejoin:miter;stroke-opacity:1;fill-opacity:1"
       d="M 168.30907,188.15014 C 109.23543,190.4249 71.014384,138.56396 37.762049,127.88027 66.711894,122.11593 104.97212,183.48536 168.30907,188.15014 Z"
       id="path4478"
       inkscape:connector-curvature="0"
       sodipodi:nodetypes="ccc" />
    <path
       style="fill:none;fill-rule:evenodd;stroke:#837d67;stroke-width:3;stroke-linecap:round;stroke-linejoin:round;stroke-miterlimit:4;stroke-dasharray:none;stroke-opacity:1"
       d="M 86.620586,90.334982 48.487322,70.384469"
       id="path4480"
       inkscape:connector-curvature="0"
       sodipodi:nodetypes="cc" />
    <path
       style="fill:none;fill-rule:evenodd;stroke:#837d67;stroke-width:3;stroke-linecap:round;stroke-linejoin:round;stroke-miterlimit:4;stroke-dasharray:none;stroke-opacity:1"
       d="M 90.91373,117.86164 52.780471,96.648432"
       id="path4482"
       inkscape:connector-curvature="0"
       sodipodi:nodetypes="cc" />
    <path
       style="display:inline;fill:none;fill-rule:evenodd;stroke:#837d67;stroke-width:3;stroke-linecap:round;stroke-linejoin:round;stroke-miterlimit:4;stroke-dasharray:none;stroke-opacity:1"
       d="M 117.43023,85.157951 83.337582,67.985358"
       id="path4480-5"
       inkscape:connector-curvature="0"
       sodipodi:nodetypes="cc" />
  </g>
</svg>

<svg xmlns="http://www.w3.org/2000/svg" xmlns:xlink="http://www.w3.org/1999/xlink" viewBox="0 0 256 256">
    <defs>
        <linearGradient id="elementalEarth1">
            <stop offset="0" stop-color="#c78c38"/>
            <stop offset="1" stop-color="#e3a347"/>
        </linearGradient>
        <linearGradient id="elementalEarth3">
            <stop offset="0" stop-color="#6b6662"/>
            <stop offset="1" stop-color="#9f9f9f"/>
        </linearGradient>
        <linearGradient id="linearGradient4219" x1="165.226" x2="120.897" y1="229.362" y2="72.649" gradientTransform="matrix(.62503 0 0 .62173 40.746 43.76)" gradientUnits="userSpaceOnUse" xlink:href="#elementalEarth3"/>
    </defs>
    <g stroke="#52473f" stroke-width="3">
        <path fill="url(#linearGradient4219)" fill-rule="evenodd" d="M134.283 188.738l-41.745-1.023-32.62-34.3-8.606-31.016L66.17 98.027l10.72-25.5 47.076-18.39 44.655 19.34 19.205 32.994-.392 36.076-24.838 33.687z" transform="matrix(.3676 .64388 -.65102 .36357 191.68 10.408)"/>
        <path fill="none" d="M60.14 153.624l32.829-10.032 30.595 15.676 10.273 28.634M123.564 158.85l16.972-22.156 29.032-5.434 17.42 11.496" transform="matrix(.3676 .64388 -.65102 .36357 191.68 10.408)"/>
        <path fill="none" d="M169.568 131.469l-5.307-29.604-24.171-7.391 27.606-21.077M140.313 94.265l-35.508-2.717-27.692-19.02M103.688 91.339l18.369 23.759 18.256 21.387M74.638 119.695l18.33 23.688M51.71 122.506l69.677-7.74" transform="matrix(.3676 .64388 -.65102 .36357 191.68 10.408)"/>
    </g>
    <path fill="#9d8b7f" fill-rule="evenodd" d="M168.31 188.15c-59.075 2.275-97.296-49.586-130.548-60.27 28.95-5.764 67.21 55.605 130.547 60.27z"/>
    <path fill="none" stroke="#837d67" stroke-linecap="round" stroke-linejoin="round" stroke-width="3" d="M86.62 90.335l-38.133-19.95M90.914 117.862L52.78 96.648M117.43 85.158L83.338 67.985"/>
</svg>
